X:1
T:The Constellations Suite
T:Tom Brier Neil Blaze Transcribed from: Album: "Constellations", Track 11: "Cepheus" 
T:The Constellations Suite
T:Part I: Cepheus
C:Tom Brier
C:Neil Blaze
%%score { ( 1 2 ) | 3 }
L:1/8
Q:1/2=60
M:4/4
K:A
V:1 treble nm="Piano" snm="Pno."
V:2 treble 
V:3 bass 
V:1
"^Moderato" [Ac]2 [Ae]2 ag [Bf]2 | [ce]2 [ca]2 d'c' [db]2 | [^ec']2 [fa]2 bf [=eg]2 | %3
 ae [df]2 [ce]A B2 |: [EAc]2 ec dBcd- | dGAB cA^FA | GEGc- c B2 c | [FA]CcB- Bc A2 | BAcB- BA =F2 | %9
 EAcB- Bc A2 | [CE]Gc[=Gce]- [Gce] [F^B^d]2 ^G | [Ec] [=FAB]2 [EGB]- [EGB][EG][^FA][GB] | %12
 [EAc]2 ec dBcd- | dGAB cA^FA | GEcB- BGfe- | ecba- abc'b- | bafb- ba=fb- | baef- [Acf]F[^Ac]e | %18
 [Bd]DF[=Fd]- dB [Gc]2 |1 [CEA]2 [GAe]2 [Fd]2 [DB]2 :|2 [CEA]2 [CE][DF]- [DF][EG][FA][GB] |: %21
 [EAc]2 [Ae][da]- [da]g [Af]2 | [Ace]2 [ca][fd']- [fd']c' [db]2 | %23
 [ec']2 [ca][df]- [df][fa][eg][df] | [ce]4- [ce]=G^Ac | deG[^EGc]- [EGc] B2 c | %26
 BcF[B,^EG]- [B,EG] [A,CF]2 C | ^B,^DF[B,DFA]- [B,DFA] G2 F | [B,^EG]4 [=EGBd]4 | %29
 [EAc]2 [Ae][da]- [da]g [Bf]2 | [ce]2 [ca][fd']- [fd']c' [db]2 | [^ec']2 [Bg][ca]- [ca][Bg][Af]=e | %32
 [^db]2 [ca][Bg]- gefg | [ca]2 e[d=f]- [df]GAB | [^Ec]2 G[FA]- [FA]F[=EG]A | %35
 [^DB]2 F[=DG]- [DG]E [DGc]2 |1 [CEA]2 cA [DGB]Efd :|2 [CEA]2 Bc d[df][ce][Bd] || [EAc]2 ec dBcd- | %39
 dGAB cA^FA | GEGc- c B2 c | [FA]CcB- Bc A2 | BAcB- BA =F2 | EAcB- Bc A2 | %44
 [CE]Gc[=Gce]- [Gce] [F^B^d]2 ^G | [Ec] [=FAB]2 [EGB]- [EGB][EG][^FA][GB] | [EAc]2 ec dBcd- | %47
 dGAB cA^FA | GEcB- BGfe- | ecba- abc'b- | bafb- ba=fb- | baef- [Acf]F[^Ac]e | %52
 [Bd]DF[=Fd]- dB [DGc]2 | [CEA]4 [A,CEA]4 ||[K:C#min] [CA]A,GF- FG [A,CF]2 | [CA]A,GF- FG [A,CF]2 | %56
 [CA]FG[=CFA]- [CFA]GFA | [B,C^EG]4 [CEGBc]4 |: [CA]A,G[A,^B,F]- [A,B,F]A[=B,CG]^E | %59
 [CF]^A,E[B,=D]- [B,D][CE] [DF]2 | [B,C^E][DF][EG][A,CFA]- [A,CFA][B,B] [CFAc]2 | %61
 [^B,FG^B][Cc][Dd][^E=Bc^e]- [EBce][Ff] [GBeg]2 | [F^Acf]2 [Cc][EBe]- [EBe] [=DFB=d]2 [B,B] | %63
 [C^EGBc]2 [G,G][B,FB]- [B,FB] [=A,^C^F=A]2 [G,G] | [CDF]A,G[CDFA]- [CDFA] [A,F]2 G | %65
 [G,E]B,E[B,^EG]- [B,EG] [Cc]2 [B,B] | [CA]A,G[A,^B,F]- [A,B,F]A[=B,CG]^E | %67
 [CF]^A,E[B,=D]- [B,D][CE] [DF]2 | [B,C^E][DF][EG][A,CFA]- [A,CFA][B,B] [CFAc]2 | %69
 [^B,FG^B][Cc][Dd][^E=Bc^e]- [EBce][Ff] [GBeg]2 | [F^Acf]2 [Cc][EBe]- [EBe] [=DFB=d]2 [B,B] | %71
 [C^EGBc]2 [G,G][B,FB]- [B,FB] [=A,^C^F=A]2 [G,G] | [^B,F]GA[C^EGc]- [CEGc]B[=B,=DG]A |1 %73
 [A,CF]2 ^EF [CEG]2 FG :|2 [A,CF]2 GA [GB]2 c=d ||[K:A] [Ac]2 [Ae]2 ag [Bf]2 | %76
 [ce]2 [ca]2 d'c' [db]2 | [^ec']2 [fa]2 bf [=eg]2 | ae [df]2 [ce]A B2 || [EAc]2 ec dBcd- | %80
 dGAB cA^FA | GEGc- c B2 c | [FA]CcB- Bc A2 | BAcB- BA =F2 | EAcB- Bc A2 | %85
 [CE]Gc[=Gce]- [Gce] [F^B^d]2 ^G | [Ec] [=FAB]2 [EGB]- [EGB][EG][^FA][GB] | [EAc]2 ec dBcd- | %88
 dGAB cA^FA | GEcB- BGfe- | ecba- abc'b- | bafb- ba=fb- | baef- [Acf]F[^Ac]e | %93
 [Bd]DF[=Fd]- dB [Gc]2 | !fermata![A,CFA]2 !fermata![A,DF]2 !fermata![A,CE]4 |] %95
V:2
 x4 d2 x2 | x4 f2 x2 | x4 ^d2 x2 | c2 x6 |: x2 [GA]2 F2 EF- | F2 =F2 E2 _E2 | %6
 D2 x [DEG]- [DEG] [C^EG]3 | x3 [C=G]- [CG]2 [CG]2 | [DF]3 [D=F]- [DF]2 D2 | %9
 C3 [C^E]- [CE]2 [CF]2 | x8 | x8 | x2 [GA]2 F2 EF- | F2 =F2 E2 _E2 | D2 x [DEG]- [DEG]2 x [=GAc]- | %15
 [GAc]3 [c=g]- [cg]3 d- | d2 Bd- d2 Bc- | c2 A[^Ac]- x4 | x4 F2 x2 |1 x8 :|2 x8 |: x8 | x8 | x8 | %24
 x8 | [EG]2 x3 [C^E]3 | [CF]2 x6 | x8 | x8 | x8 | x8 | x8 | x4 B2 =d2 | x8 | x8 | x8 |1 x8 :|2 %37
 x8 || x2 [GA]2 F2 EF- | F2 =F2 E2 _E2 | D2 x [DEG]- [DEG] [C^EG]3 | x3 [C=G]- [CG]2 [CG]2 | %42
 [DF]3 [D=F]- [DF]2 D2 | C3 [C^E]- [CE]2 [CF]2 | x8 | x8 | x2 [GA]2 F2 EF- | F2 =F2 E2 _E2 | %48
 D2 x [DEG]- [DEG]2 x [=GAc]- | [GAc]3 [c=g]- [cg]3 d- | d2 Bd- d2 Bc- | c2 A[^Ac]- x4 | x4 F2 x2 | %53
 x8 ||[K:C#min] x8 | x8 | x8 | x8 |: x8 | x8 | x8 | x8 | x8 | x8 | x8 | x8 | x8 | x8 | x8 | x8 | %70
 x8 | x8 | x8 |1 x8 :|2 x8 ||[K:A] x4 d2 x2 | x4 f2 x2 | x4 ^d2 x2 | c2 x6 || x2 [GA]2 F2 EF- | %80
 F2 =F2 E2 _E2 | D2 x [DEG]- [DEG] [C^EG]3 | x3 [C=G]- [CG]2 [CG]2 | [DF]3 [D=F]- [DF]2 D2 | %84
 C3 [C^E]- [CE]2 [CF]2 | x8 | x8 | x2 [GA]2 F2 EF- | F2 =F2 E2 _E2 | D2 x [DEG]- [DEG]2 x [=GAc]- | %90
 [GAc]3 [c=g]- [cg]3 d- | d2 Bd- d2 Bc- | c2 A[^Ac]- x4 | x4 F2 x2 | x8 |] %95
V:3
 [A,E]2 [E,C]2 [F,D]2 [D,B,]2 | [C,A,]2 [E,C]2 [D,A,]2 [A,,F,]2 | %2
 [G,,^E,]2 [F,,C,]2 [B,,F,]2 [G,,=E,]2 | [A,,E,]2 [A,,F,]2 [A,,E,]2 E,,2 |: %4
 [A,,E,]2 [E,C]2 [D,B,]2 [C,A,]2 | [D,A,]2 [D,B,]2 [C,A,]2 [=C,A,]2 | %6
 [B,,G,]2 [B,,E,G,]2 [E,,E,]2 [^E,,^E,]2 | [F,,F,]2 [C,F,A,]2 [A,,A,]2 [E,,E,]2 | %8
 [D,,D,]2 [D,F,A,]2 [A,,=F,]2 [D,F,A,]2 | [A,,E,]2 [E,A,]2 [G,,G,]2 [F,,F,]2 | %10
 [G,,G,]2 [E,G,C]2 [^A,,^A,]2 [G,,G,]2 | [C,C]2 [B,,A,]2 [B,,G,]2 [E,,E,]2 | %12
 [A,,E,]2 [E,C]2 [D,B,]2 [C,A,]2 | [D,A,]2 [D,B,]2 [C,A,]2 [=C,A,]2 | %14
 [B,,G,]2 [B,,E,G,]2 [E,,E,]2 [G,,G,]2 | [A,,A,]2 [=G,A,CE]2 [A,,G,]2 [G,A,CE]2 | %16
 [A,,F,]2 [F,A,D]2 [A,,=F,]2 [F,A,D]2 | [G,,E,]2 [=G,,A,]2 [F,,E,^A,]2 [F,A,C]2 | %18
 [B,,F,]2 [F,B,D]2 [=F,A,B,]2 [E,G,B,D]2 |1 [A,,E,]2 [E,C]2 [D,B,]2 [B,,G,]2 :|2 %20
 [A,,E,]4 [B,,A,]2 [B,,G,]2 |: [A,,A,]2 [A,,=G,]2 [A,,F,]2 [F,,D,]2 | %22
 [A,,E,]2 [A,,=G,]2 [A,,F,]2 [B,,A,]2 | [C,A,]2 [A,,G,]2 [A,,F,]2 [A,,D,]2 | C,E,A,B, C ^A,2 =G, | %25
 E,2 B,,2 G,,2 C,,2 | F,,2 C,2 ^E,2 F,2 | G,2 F,2 ^D,2 G,,2 | C, ^E,2 G, B, =E,2 G,, | %29
 [A,,A,]2 [A,,=G,]2 [A,,F,]2 [F,,D,]2 | [A,,E,]2 [A,,=G,]2 [A,,F,]2 [B,,A,]2 | %31
 [C,G,]2 [^E,C]2 [F,C]2 [C,A,]2 | [B,,A,]2 [^D,B,]2 [E,B,]2 [=D,B,]2 | %33
 [C,A,]2 [A,,=G,]2 [D,,A,,=F,]2 [F,A,D]2 | [C,,C,]2 [^E,,^E,]2 [F,,F,]2 [C,C]2 | %35
 [B,,B,]2 [B,,A,]2 [B,,G,]2 [E,,E,]2 |1 [A,,A,]4 [E,G,B,]4 :|2 [A,,A,]4 [E,B,]4 || %38
 [A,,E,]2 [E,C]2 [D,B,]2 [C,A,]2 | [D,A,]2 [D,B,]2 [C,A,]2 [=C,A,]2 | %40
 [B,,G,]2 [B,,E,G,]2 [E,,E,]2 [^E,,^E,]2 | [F,,F,]2 [C,F,A,]2 [A,,A,]2 [E,,E,]2 | %42
 [D,,D,]2 [D,F,A,]2 [A,,=F,]2 [D,F,A,]2 | [A,,E,]2 [E,A,]2 [G,,G,]2 [F,,F,]2 | %44
 [G,,G,]2 [E,G,C]2 [^A,,^A,]2 [G,,G,]2 | [C,C]2 [B,,A,]2 [B,,G,]2 [E,,E,]2 | %46
 [A,,E,]2 [E,C]2 [D,B,]2 [C,A,]2 | [D,A,]2 [D,B,]2 [C,A,]2 [=C,A,]2 | %48
 [B,,G,]2 [B,,E,G,]2 [E,,E,]2 [G,,G,]2 | [A,,A,]2 [=G,A,CE]2 [A,,G,]2 [G,A,CE]2 | %50
 [A,,F,]2 [F,A,D]2 [A,,=F,]2 [F,A,D]2 | [G,,E,]2 [=G,,A,]2 [F,,E,^A,]2 [F,A,C]2 | %52
 [B,,F,]2 [F,B,D]2 [=F,A,B,]2 [E,G,B,D]2 | A,,2 E,,2 [A,,,A,,]4 || %54
[K:C#min] [F,,F,]3 [A,C]- [A,C]2 [F,,F,]2 | [E,,E,]3 [A,C]- [A,C]2 [E,,E,]2 | %56
 [D,,D,]3 [=D,,=D,]- [D,,D,]2 A,,2 | G,,2 C,,2 C,4 |: [F,,F,]2 [E,,E,]2 [=D,,=D,]2 [C,,C,]2 | %59
 [^A,,,^A,,]2 [F,,,F,,]2 [B,,,B,,]2 [=D,,=D,]2 | [C,,C,]2 [^E,,^E,]2 [F,,F,]2 [=E,,=E,]2 | %61
 [D,,D,]2 [^B,,,^B,,]2 [C,,C,]2 [=B,,,=B,,]2 | ^A,,,2 F,,,2 B,,,F,, =D,,2 | %63
 [B,,,B,,]2 [^E,,,^E,,]2 F,,C,A,,F,, | B,,4 B,,,2 B,,2 | %65
 [E,,E,]2 [=D,,=D,][C,,C,]- [C,,C,]2 [^E,,^E,]2 | [F,,F,]2 [E,,E,]2 [=D,,=D,]2 [C,,C,]2 | %67
 [^A,,,^A,,]2 [F,,,F,,]2 [B,,,B,,]2 [=D,,=D,]2 | [C,,C,]2 [^E,,^E,]2 [F,,F,]2 [=E,,=E,]2 | %69
 [D,,D,]2 [^B,,,^B,,]2 [C,,C,]2 [=B,,,=B,,]2 | ^A,,,2 F,,,2 B,,,F,, =D,,2 | %71
 [B,,,B,,]2 [^E,,,^E,,]2 F,,C,A,,F,, | [=D,,=D,]3 [C,,C,]- [C,,C,]2 [C,,C,]2 |1 %73
 [F,,F,]4 [C,,C,]4 :|2 [F,,F,]4 [E,B,]4 ||[K:A] [A,E]2 [E,C]2 [F,D]2 [D,B,]2 | %76
 [C,A,]2 [E,C]2 [D,A,]2 [A,,F,]2 | [G,,^E,]2 [F,,C,]2 [B,,F,]2 [G,,=E,]2 | %78
 [A,,E,]2 [A,,F,]2 [A,,E,]2 E,,2 || [A,,E,]2 [E,C]2 [D,B,]2 [C,A,]2 | %80
 [D,A,]2 [D,B,]2 [C,A,]2 [=C,A,]2 | [B,,G,]2 [B,,E,G,]2 [E,,E,]2 [^E,,^E,]2 | %82
 [F,,F,]2 [C,F,A,]2 [A,,A,]2 [E,,E,]2 | [D,,D,]2 [D,F,A,]2 [A,,=F,]2 [D,F,A,]2 | %84
 [A,,E,]2 [E,A,]2 [G,,G,]2 [F,,F,]2 | [G,,G,]2 [E,G,C]2 [^A,,^A,]2 [G,,G,]2 | %86
 [C,C]2 [B,,A,]2 [B,,G,]2 [E,,E,]2 | [A,,E,]2 [E,C]2 [D,B,]2 [C,A,]2 | %88
 [D,A,]2 [D,B,]2 [C,A,]2 [=C,A,]2 | [B,,G,]2 [B,,E,G,]2 [E,,E,]2 [G,,G,]2 | %90
 [A,,A,]2 [=G,A,CE]2 [A,,G,]2 [G,A,CE]2 | [A,,F,]2 [F,A,D]2 [A,,=F,]2 [F,A,D]2 | %92
 [G,,E,]2 [=G,,A,]2 [F,,E,^A,]2 [F,A,C]2 | [B,,F,]2 [F,B,D]2 [=F,A,B,]2 [E,G,B,D]2 | %94
 [F,,C,F,]2 [D,,D,]2 [A,,,A,,]4 |] %95

